X: 1
T: (Children,) Go Where I Send Thee    [C]
Z: 2019 John Chambers <jc:trillian.mit.edu>
M: 2/4
L: 1/8
K: C
C2E2 | "C"G4 F2E2 | F2 G6 | c4 GF3 | E2 C6 | ECCA, "Gm7"C2C2 | "C"C2CE- E4 ||
|: "C"E2CA, "Gm7"C2CC | "C"zC3 "Gm7"E2-E2 :| "C"G4 | "F"G2 F6 | "C"E2C2 "G7"D2D2 | "C"C4 |]
